!!key: tele-40-5-Fan-Pre-3-Flute
!!!COM: Telemann, Georg Philipp
!!!CDT: 1681/03/14-1767/06/25
!!!CBL: Magdeburg
!!!CDL: Hamburg
!!!CNT: German
!!!TWV: 40:5
!!!TWV-genre: 40
!!!TWV-work: 5
!!!OPR: 12 Fantasias for transverse flute without bass
!!!OTL: Fantasia 4
!!!OMD: Presto
!!!OMV: 3
!!!ODT: ca. 1732–1733
!!!AST: Late Baroque
!!!AGN: Fantasia
!!!AMT: Simple quadruple
!!!AIN: Transverse flute
**kern	**dynam
*ICww	*
*Iflt	*
*clefG2	*
*k[b-e-]	*
*B-:	*
*M4/4	*
*met(c)	*
=1-	=1-
2ff	.
(16ee-LL	.
16ffJ	.
8gg)J	.
4ff	.
=2	=2
4dd	.
(8ccL	.
8dd)J	.
(8ee-L	.
8dd)	.
(8cc	.
8dd)J	.
=3	=3
4b-	.
4f	.
(8b-L	.
16ccL	.
16dd)JJ	.
(8ccL	.
16ddL	.
16ee-)JJ	.
=4	=4
!TODO: trill +	!
4dd	.
4cc	.
2r	.
=5	=5
4b-	p
4f	.
(8b-L	.
16ccL	.
16dd)JJ	.
(8ccL	.
16ddL	.
16ee-)JJ	.
!!LO:LB:g=original
=6	=6
!TODO: trill +	!
4dd	.
4cc	.
2r	.
=7	=7
2ff	f
(16ee-LL	.
16ffJ	.
8gg)J	.
4ff	.
=8	=8
4dd	.
(8ccL	.
8dd)J	.
(8ee-L	.
8dd)	.
(8cc	.
8dd)J	.
=9	=9
4b-	.
4f	.
4ff	.
4b-	.
=10	=10
4bb-	.
8aaL	.
8ggJ	.
8ffL	.
8ee-	.
8dd	.
8ccJ	.
=11	=11
4bb-	.
4b-	.
(8ddL	.
8cc)	.
(8b-	.
8a)J	.
=12	=12
2b-	.
2r	.
!!LO:LB:g=original
=13:||:	=13:||:
2dd	.
(16ccLL	.
16ddJ	.
8ee-)J	.
4dd	.
=14	=14
4gg	.
(8ff#XL	.
8gg)J	.
(8aaL	.
8gg)	.
(8ff#	.
8gg)J	.
=15	=15
2dd	.
(16ccLL	.
16ddJ	.
8ee-)J	.
4dd	.
=16	=16
4bb-	.
4aa	.
2r	.
=17	=17
4bb-	.
8gL	.
8fJ	.
4en	.
4bb-	.
=18	=18
4aa	.
8fL	.
8enJ	.
4d	.
4ff	.
!!LO:LB:g=original
=19	=19
4een	.
(8ffL	.
8dd)J	.
(8ffL	.
8ee)	.
(8dd	.
8cc#X)J	.
=20	=20
8ddL	.
8ff	.
8ee-X	.
8ddJ	.
(8ee-L	.
8dd)	.
(8ccn	.
8bn)J	.
=21	=21
(8ccL	.
8ee-)J	.
2gg	.
4ff	.
=22	=22
4a	.
4b-	.
2r	.
=23	=23
(8ccL	p
8ee-)J	.
2gg	.
4ff	.
=24	=24
4a	.
4b-	.
2r	.
!!LO:LB:g=original
=25	=25
8ee-L	f
8ff	.
8ee-	.
8ccJ	.
8ddL	.
8ee-	.
8dd	.
8b-J	.
=26	=26
8ccL	.
8dd	.
8cc	.
8aJ	.
4b-	.
4ff	.
=27	=27
4dd	.
(8ccL	.
8dd)J	.
(8ee-L	.
8dd)	.
(8cc	.
8b-)J	.
=28	=28
8aL	.
8f	.
8g	.
8aJ	.
8b-L	.
8cc	.
8dd	.
8ee-J	.
=29	=29
2ff	.
(16ee-LL	.
16ffJ	.
8gg)J	.
4ff	.
!!LO:LB:g=original
=30	=30
4dd	.
(8ccL	.
8dd)J	.
(8ee-L	.
8dd)	.
(8cc	.
8dd)J	.
=31	=31
4b-	.
4f	.
(8b-L	.
16ccL	.
16dd)JJ	.
(8ccL	.
16ddL	.
16ee-)JJ	.
=32	=32
!TODO: trill +	!
4dd	.
4cc	.
2r	.
=33	=33
4b-	p
4f	.
(8b-L	.
16ccL	.
16dd)JJ	.
(8ccL	.
16ddL	.
16ee-)JJ	.
=34	=34
!TODO: trill +	!
4dd	.
4cc	.
2r	.
!!LO:LB:g=original
=35	=35
2ff	f
(16ee-LL	.
16ffJ	.
8gg)J	.
4ff	.
=36	=36
4dd	.
(8ccL	.
8dd)J	.
(8ee-L	.
8dd)	.
(8cc	.
8dd)J	.
=37	=37
4b-	.
4f	.
4ff	.
4b-	.
=38	=38
4bb-	.
8aaL	.
8ggJ	.
8ffL	.
8ee-	.
8dd	.
8ccJ	.
=39	=39
4bb-	.
4b-	.
(8ddL	.
8cc)	.
(8b-	.
8a)J	.
=40	=40
2b-	.
2r	.
==:|	==:|
*-	*-
!!!RTL1: G. PH. Telemann: Twelve Fantasias for Flute without Bass TWV 40:2-13
!!!RPN1: D'Arcangelo, Rita
!!!RMM1: Da Vinci Classics
!!!RC#1: DV-C00440
!!!RRD1: 2022
!!!RLC1: Andreaskirche, Berlin, Germany
!!!RDT1: 16 September 2020, 17 September 2020
!!!RT#1: 4
!!!RTL2: The Telemann Files: 12 Fantasies for Solo Flute
!!!RPN2: Choi, Jasmine
!!!RMM2: Austrian Gramophone
!!!RC#2: AG0001
!!!RRD2: February 2015
!!!RLC2: LeFrak Hall, Queens, USA
!!!RDT2: 9 June 2014, 10 June 2014
!!!RT#2: 4
!!!RTL3: Georg Philipp Telemann: Twelve Fantasies for Flute
!!!RPN3: Robertello, Thomas
!!!RMM3: Delos
!!!RC#3: DE3396
!!!RRD3: 1 June 2009
!!!RLC3: Clear Creek Recording, Keene, California
!!!RDT3: Unknown
!!!RT#3: 4
